X: 83
Q: "Larghetto."
U: Q=!diminuendo(!
U: q=!diminuendo)!
M: 6/8
L: 1/8
K: C
[| !pp!E2 E A3 | G2 G c3 | c B A G>- G ^F | (A3 G2) z |
"^<>"E3 "^<>"A2 A | G2 "^>"E HA3 | !p!d B c A>- A B | (A3 G2) z |
!mf!G B A (G A) G | (G c) A G3 | !pp!(G2 B) A
!p!G2 G G> A G | "^rall. e dim."G2 G G> A G | "^pp"Qc6- | qc3- c2 z |]


